rusokon/images/icon-func-2.svg

<svg xmlns="http://www.w3.org/2000/svg" width="86" height="86" viewBox="0 0 86 86"><defs><style>.cls-1{fill:#8d8d8d;}.cls-2{fill:none;stroke:#ff1a44;stroke-miterlimit:10;stroke-width:2px;}.cls-3{isolation:isolate;}.cls-4{fill:#848484;}</style></defs><title>icon-func-2</title><path class="cls-1" d="M85 1v84h-84v-84h84m1-1h-86v86h86v-86z"/><path class="cls-2" d="M49.7 62.7l-16.5-11.6h-16.6v-16.6h16.6l16.5-11.5v39.7z"/><path class="cls-4" d="M58.4 45.9l3.7-3.7-3.7-3.7a.64.64 0 0 1 .9-.9l3.7 3.7 3.7-3.7a.64.64 0 1 1 .9.9l-3.6 3.7 3.7 3.7a.64.64 0 0 1-.9.9l-3.8-3.6-3.7 3.7a.56.56 0 0 1-.9 0 .61.61 0 0 1 0-1z"/></svg>

<svg id="Layer_1" data-name="Layer 1" xmlns="http://www.w3.org/2000/svg" width="86px" height="86px" viewBox="0 0 86 86"><defs><style>.cls-1{fill:#8d8d8d;}.cls-2{fill:none;stroke:#ff1a44;stroke-miterlimit:10;stroke-width:2px;}.cls-3{isolation:isolate;}.cls-4{fill:#848484;}</style></defs><title>icon-func-2</title><path class="cls-1" d="M85,1V85H1V1H85m1-1H0V86H86V0Z"/><polygon class="cls-2" points="49.7 62.7 33.2 51.1 16.6 51.1 16.6 34.5 33.2 34.5 49.7 23 49.7 62.7"/><g class="cls-3"><path class="cls-4" d="M58.4,45.9l3.7-3.7-3.7-3.7a.64.64,0,0,1,.9-.9L63,41.3l3.7-3.7a.64.64,0,1,1,.9.9L64,42.2l3.7,3.7a.64.64,0,0,1-.9.9L63,43.2l-3.7,3.7a.56.56,0,0,1-.9,0A.61.61,0,0,1,58.4,45.9Z"/></g></svg>
